!!!!SEGMENT: pl-stab--8a--001-005_dankowski-adalbert--requiem-sanctus.krn
!!!cenid: 18xx:3479
!!!COM: Dankowski, Adalbert
!!!COM-rismid: pe30000793
!!!CDT: ~1760-~1836
!!!CNT: Polish
!!!OPR: Requiem
!!!OTL: Sanctus
!!!OMV: 005
!!!PDT:
!!!AGN:
!!!SMS-siglum: PL-STAb
!!!SMS-shelfmark: 8a
!!!SMS-shelfwork: 001-005 M
!!!SMS-variant:
!!!SMS-altvar:
!!!NIFC-rismid: 301050561
!!!URL-scan: https://repozytorium.nifc.pl/islandora/object/pl-stab%3A1903/datastream/PDF/view
!!!ONB-nifc: UWAGA: części Requiem: 1. Requiem aeternam, 2. Kyrie, 3. Dies irae, 4. Domine Jesu Christe, 5. Sanctus, 6. Benedictus, 7. Agnus Dei, 8. Lux aeterna
!!!AIN: 1 alto 1 bass 2 clara 2 cor 1 organ 1 soprn 1 tenor 2 violn
!!!key: E-
**kern	**dynam	**fba	**kern	**dynam	**kern	**dynam	**kern	**text	**kern	**text	**kern	**text	**kern	**text	**kern	**kern	**kern	**dynam	**kern	**dynam
*group5	*	*	*group4	*	*group4	*	*group3	*	*group3	*	*group3	*	*group3	*	*group2	*group2	*group1	*	*group1	*
*part11	*part11	*	*part10	*part10	*part9	*part9	*part8	*part8	*part7	*part7	*part6	*part6	*part5	*part5	*part4	*part3	*part2	*part2	*part1	*part1
*staff11	*	*	*staff10	*	*staff9	*	*staff8	*staff8	*staff7	*staff7	*staff6	*staff6	*staff5	*staff5	*staff4	*staff3	*staff2	*	*staff1	*
*I"Organo	*	*	*I"Violino Secundo	*	*I"Violino Primo	*	*I"Baſso	*	*I"Tenor	*	*I"Alto	*	*I"Canto	*	*I"Cornu Secondo in Dis	*I"Cornu Primo in Dis	*I"Clarinetto Secundo in Es!	*	*I"Clarinetto Primo in Es.	*
*I'[Org]	*	*	*I'[Vl 2]	*	*I'[Vl 1]	*	*I'[B]	*	*I'[T]	*	*I'[A]	*	*I'[S]	*	*I'[Cor 2 in Dis]	*I'[Cor 1 in Dis]	*I'[Cl 2 in Es]	*	*I'[Cl 1 in Es]	*
*Iorgan	*	*	*Ivioln	*	*Ivioln	*	*Ibass	*	*Itenor	*	*Ialto	*	*Isoprn	*	*Icor	*Icor	*Iclara	*	*Iclara	*
*ICklav	*	*	*ICstr	*	*ICstr	*	*ICvox	*	*ICvox	*	*ICvox	*	*ICvox	*	*ICbras	*ICbras	*ICww	*	*ICww	*
*IGcont	*	*	*IGacmp	*	*IGacmp	*	*IGcoro	*	*IGcoro	*	*IGcoro	*	*IGcoro	*	*IGacmp	*IGacmp	*IGacmp	*	*IGacmp	*
*clefF4	*	*	*clefG2	*	*clefG2	*	*clefF4	*	*clefC4	*	*clefC3	*	*clefC1	*	*clefG2	*clefG2	*clefG2	*	*clefG2	*
*	*	*	*	*	*	*	*	*	*	*	*	*	*	*	*ITrd5c9	*ITrd5c9	*ITrd1c2	*	*ITrd1c2	*
*k[b-e-a-]	*	*	*k[b-e-a-]	*	*k[b-e-a-]	*	*k[b-e-a-]	*	*k[b-e-a-]	*	*k[b-e-a-]	*	*k[b-e-a-]	*	*k[b-e-a-]	*k[b-e-a-]	*k[b-e-a-]	*	*k[b-e-a-]	*
*E-:	*	*	*E-:	*	*E-:	*	*E-:	*	*E-:	*	*E-:	*	*E-:	*	*E-:	*E-:	*E-:	*	*E-:	*
*M4/4	*	*	*M4/4	*	*M4/4	*	*M4/4	*	*M4/4	*	*M4/4	*	*M4/4	*	*M4/4	*M4/4	*M4/4	*	*M4/4	*
*met(c)	*	*	*met(c)	*	*met(c)	*	*met(c)	*	*met(c)	*	*met(c)	*	*met(c)	*	*met(c)	*met(c)	*met(c)	*	*met(c)	*
=1	=1	=1	=1	=1	=1	=1	=1	=1	=1	=1	=1	=1	=1	=1	=1	=1	=1	=1	=1	=1
!	!	!	!	!	!	!	!	!	!	!	!LO:TX:a:B:t=Solo	!	!LO:TX:a:B:t=Solo	!	!	!	!	!	!LO:TX:t=P:problem=klarnety wbrew nazwom głosu są w stroju B	!
!LO:TX:a:B:t=adagio	!	!	!LO:TX:a:B:t=Adagio	!	!LO:TX:a:B:t=Adagio	!	!LO:TX:a:B:t=adagio	!	!LO:TX:a:B:t=adagio	!	!LO:TX:a:B:t=adagio	!	!LO:TX:a:B:t=adagio	!	!	!LO:TX:a:t=adagio	!LO:TX:a:B:t=Adagio	!	!LO:TX:a:B:t=Adagio	!
16E-\LL	.	.	(<8.g/L	.	(8.b-/L	.	0r	.	0r	.	4g\	San-	4ee-\	San-	0r	0r	0r	.	0r	.
16E-\	.	.	.	.	.	.	.	.	.	.	.	.	.	.	.	.	.	.	.	.
!	!LO:DY:a:t=p.	!	!	!	!	!	!	!	!	!	!	!	!	!	!	!	!	!	!	!
16E-\	p	.	.	.	.	.	.	.	.	.	.	.	.	.	.	.	.	.	.	.
!	!	!	!	!	!	!LO:DY:a:t=p&colon;	!	!	!	!	!	!	!	!	!	!	!	!	!	!
16E-\JJ	.	.	16f/Jk)	.	16a-/Jk)	p	.	.	.	.	.	.	.	.	.	.	.	.	.	.
!	!	!	!	!LO:DY:a:rj:t=p.	!LO:TX:b:t=|:problem	!	!	!	!	!	!	!	!	!	!	!	!	!	!	!
8E-\	.	.	16e-'</LL	p	16g/LL	.	.	.	.	.	8g\	-ctus	8ee-\	-ctus	.	.	.	.	.	.
!	!	!	!	!	!LO:TX:b:t=|:problem	!	!	!	!	!	!	!	!	!	!	!	!	!	!	!
.	.	.	16e-'</	.	16g/	.	.	.	.	.	.	.	.	.	.	.	.	.	.	.
!	!	!	!	!	!LO:TX:b:t=|:problem	!	!	!	!	!	!	!	!	!	!	!	!	!	!	!
8r	.	.	16e-'</	.	16g/	.	.	.	.	.	8r	.	8r	.	.	.	.	.	.	.
!	!	!	!	!	!LO:TX:b:t=|:problem	!	!	!	!	!	!	!	!	!	!	!	!	!	!	!
.	.	.	16e-'</JJ	.	16g/JJ	.	.	.	.	.	.	.	.	.	.	.	.	.	.	.
*	*	*	*	*	*	*	*	*	*	*	*	*ij	*	*ij	*	*	*	*	*	*
16B-\LL	.	.	(<8.d/L	.	(<8.b-/L	.	.	.	.	.	4f\	San-	4dd\	San-	.	.	.	.	.	.
16B-\	.	.	.	.	.	.	.	.	.	.	.	.	.	.	.	.	.	.	.	.
16B-\	.	.	.	.	.	.	.	.	.	.	.	.	.	.	.	.	.	.	.	.
16B-\JJ	.	.	32f/LL	.	32a-/LL	.	.	.	.	.	.	.	.	.	.	.	.	.	.	.
.	.	.	32e-/JJJ)	.	32g/JJJ)	.	.	.	.	.	.	.	.	.	.	.	.	.	.	.
!	!	!	!	!	!LO:TX:b:t=|:problem	!	!	!	!	!	!	!	!	!	!	!	!	!	!	!
8B-\	.	.	16d'</LL	.	16f/LL	.	.	.	.	.	8f\	-ctus	8dd\	-ctus	.	.	.	.	.	.
*	*	*	*	*	*	*	*	*	*	*	*	*Xij	*	*Xij	*	*	*	*	*	*
!	!	!	!	!	!LO:TX:b:t=|:problem	!	!	!	!	!	!	!	!	!	!	!	!	!	!	!
.	.	.	16d'</	.	16f/	.	.	.	.	.	.	.	.	.	.	.	.	.	.	.
!	!	!	!	!	!LO:TX:b:t=|:problem	!	!	!	!	!	!	!	!	!	!	!	!	!	!	!
8r	.	.	16d'</	.	16f/	.	.	.	.	.	8r	.	8r	.	.	.	.	.	.	.
!	!	!	!	!	!LO:TX:b:t=|:problem	!	!	!	!	!	!	!	!	!	!	!	!	!	!	!
.	.	.	16d'</JJ	.	16f/JJ	.	.	.	.	.	.	.	.	.	.	.	.	.	.	.
=2	=2	=2	=2	=2	=2	=2	=2-	=2	=2-	=2	=2	=2	=2	=2	=2-	=2-	=2-	=2	=2-	=2
8E-\L	.	.	(<8.e-/L	.	(<8.g/L	.	.	.	.	.	(>8.e-\L	San-	8.g\L	Sanc-	.	.	.	.	.	.
8E-\	.	.	.	.	.	.	.	.	.	.	.	.	.	.	.	.	.	.	.	.
.	.	.	16f/Jk)	.	16a-/Jk)	.	.	.	.	.	16f\Jk	.	16a-\Jk	.	.	.	.	.	.	.
8E-\	.	.	8g'</L	.	(>16b-\LL	.	.	.	.	.	8g\)	.	16b-\LL	.	.	.	.	.	.	.
.	.	.	.	.	16cc\)	.	.	.	.	.	.	.	16cc\JJ	.	.	.	.	.	.	.
8E-\J	.	.	8g'</J	.	(>16dd\	.	.	.	.	.	8g\	-ctus	16dd\LL	-tus	.	.	.	.	.	.
.	.	.	.	.	16ee-\JJ)	.	.	.	.	.	.	.	16ee-\JJ	.	.	.	.	.	.	.
!!mixed beam:problem
!LO:TX:t=P:problem=mixed beam	!	!	!	!	!	!	!	!	!	!	!	!	!	!	!	!	!	!	!	!
8B-\L	.	4	(<8.g/L	.	(<8.b-/L	.	.	.	.	.	8.g\	Do-	8.b-\	Do-	.	.	.	.	.	.
8BB-/	.	3	.	.	.	.	.	.	.	.	.	.	.	.	.	.	.	.	.	.
.	.	.	16f/Jk)	.	16a-/Jk)	.	.	.	.	.	16f\	-mi-	16a-\	-mi-	.	.	.	.	.	.
8E-/J	.	3	8e-/	.	8g/	.	.	.	.	.	8e-\	-nus	8g\	-nus	.	.	.	.	.	.
8r	.	.	8r	.	8r	.	.	.	.	.	8r	.	8r	.	.	.	.	.	.	.
=3	=3	=3	=3	=3	=3	=3	=3	=3	=3	=3	=3	=3	=3	=3	=3	=3	=3	=3	=3	=3
!LO:TX:a:B:t=Tutti	!	!	!	!	!	!LO:DY:a:rj:t=for.	!	!	!	!	!	!	!	!	!LO:TX:a:B:t=adagio	!	!	!	!	!
16E-\LL	.	.	(<8.g/L	.	(<8.b-/L	f	4E-\	San-	4B-\	San-	4g\	Sanc-	4ee-\	San-	4e-\	4g\	4ee-\	.	4gg\	.
16E-\	.	.	.	.	.	.	.	.	.	.	.	.	.	.	.	.	.	.	.	.
16E-\	.	.	.	.	.	.	.	.	.	.	.	.	.	.	.	.	.	.	.	.
16E-\JJ	.	.	16e-/Jk)	.	16g/Jk)	.	.	.	.	.	.	.	.	.	.	.	.	.	.	.
16A-\LL	.	6:	(<8.a-/L	.	(<8.cc/L	.	4A-\	-ctus	4c\	-ctus	4a-\	-tus	4ff\	-ctus	4f\	4a-\	4ff\	.	4aa-\	.
16A-\	.	.	.	.	.	.	.	.	.	.	.	.	.	.	.	.	.	.	.	.
16A-\	.	.	.	.	.	.	.	.	.	.	.	.	.	.	.	.	.	.	.	.
16A-\JJ	.	.	16f/Jk)	.	16a-/Jk)	.	.	.	.	.	.	.	.	.	.	.	.	.	.	.
*	*	*	*	*	*	*	*	*ij	*	*ij	*	*ij	*	*ij	*	*	*	*	*	*
16B-\LL	.	3:	8.d/L	.	(<8.f/L	.	4B-\	San-	4A-/	San-	4f\	San-	4dd\	San-	4B-/	4f\	4dd\	.	4ff\	.
16B-\	.	.	.	.	.	.	.	.	.	.	.	.	.	.	.	.	.	.	.	.
16B-\	.	.	.	.	.	.	.	.	.	.	.	.	.	.	.	.	.	.	.	.
16B-\JJ	.	.	(<32e-/LL	.	32g/LL	.	.	.	.	.	.	.	.	.	.	.	.	.	.	.
.	.	.	32f/JJJ)	.	32a-/JJJ)	.	.	.	.	.	.	.	.	.	.	.	.	.	.	.
*tremolo	*	*	*	*	*	*	*	*	*	*	*	*	*	*	*	*	*	*	*	*
!	!	!	!LO:LB:g=original	!	!	!	!	!	!	!	!	!	!	!	!	!	!	!	!	!
!	!	!	!	!	!LO:TX:b:t=|:problem	!	!	!	!	!	!	!	!	!	!	!	!	!	!	!
16c\LL	.	.	8e-/	.	8g/	.	4c\	-ctus	4G/	-ctus	4g\	-ctus	4ee-\	-ctus	4e-\	4g\	4ee-\	.	4gg\	.
*	*	*	*	*	*	*	*	*	*	*Xij	*	*Xij	*	*Xij	*	*	*	*	*	*
16c\	.	.	.	.	.	.	.	.	.	.	.	.	.	.	.	.	.	.	.	.
16c\	.	.	16r	.	16r	.	.	.	.	.	.	.	.	.	.	.	.	.	.	.
16c\JJ	.	.	16e-/	.	16g/	.	.	.	.	.	.	.	.	.	.	.	.	.	.	.
*Xtremolo	*	*	*	*	*	*	*	*	*	*	*	*	*	*	*	*	*	*	*	*
!	!	!	!	!	!LO:LB:g=original	!	!	!	!	!	!	!	!	!	!	!	!	!	!	!
=4	=4	=4	=4	=4	=4	=4	=4	=4	=4	=4	=4	=4	=4	=4	=4	=4	=4	=4	=4	=4
*	*	*	*	*	*	*	*	*	*	*ij	*	*	*	*	*	*	*	*	*	*
16A-\LL	.	6	(<8.f/L	.	(<8.a-/L	.	(>4A-\	San-	(>4c\	San-	(>4a-\	San-	(>4ff\	San-	4f\	4a-\	4ff\	.	4aa-\	.
16A-\	.	.	.	.	.	.	.	.	.	.	.	.	.	.	.	.	.	.	.	.
16A-\	.	.	.	.	.	.	.	.	.	.	.	.	.	.	.	.	.	.	.	.
16A-\JJ	.	.	16a-/Jk)	.	16cc/Jk)	.	.	.	.	.	.	.	.	.	.	.	.	.	.	.
*tremolo	*	*	*	*	*	*	*	*	*	*	*	*	*	*	*	*	*	*	*	*
16B-\LL	.	3	(<8.d/L	.	(<8.f/L	.	4B-\)	.	4B-\)	.	4f\)	.	4dd\)	.	4B-/	4f\	4dd\	.	4ff\	.
16B-\	.	.	.	.	.	.	.	.	.	.	.	.	.	.	.	.	.	.	.	.
16B-\	.	.	.	.	.	.	.	.	.	.	.	.	.	.	.	.	.	.	.	.
16B-\JJ	.	.	16f/Jk)	.	16a-/Jk)	.	.	.	.	.	.	.	.	.	.	.	.	.	.	.
4E-\	.	.	(<16f/LL	.	(<16a-/LL	.	4E-\	-ctus	4B-\	-ctus	4g\	-ctus	4ee-\	-ctus	4G/	4e-\	4ee-\	.	4gg\	.
*Xtremolo	*	*	*	*	*	*	*	*Xij	*	*Xij	*	*Xij	*	*	*	*	*	*	*	*
.	.	.	16e-/)	.	16g/)	.	.	.	.	.	.	.	.	.	.	.	.	.	.	.
.	.	.	(<16d/	.	(<16f/	.	.	.	.	.	.	.	.	.	.	.	.	.	.	.
.	.	.	16e-/JJ)	.	16g/JJ)	.	.	.	.	.	.	.	.	.	.	.	.	.	.	.
4r	.	.	(<16e-/LL	.	(<16g/LL	.	4r	.	4r	.	4r	.	4r	.	4r	4r	4r	.	4r	.
.	.	.	16f/)	.	16a-/)	.	.	.	.	.	.	.	.	.	.	.	.	.	.	.
.	.	.	(<16f#X/	.	(<16an/	.	.	.	.	.	.	.	.	.	.	.	.	.	.	.
.	.	.	16g/JJ)	.	16b-/JJ)	.	.	.	.	.	.	.	.	.	.	.	.	.	.	.
!LO:LB:g=original	!	!	!	!	!	!	!	!	!	!	!LO:LB:g=original	!	!LO:LB:g=original	!	!	!	!	!	!	!
=5	=5	=5	=5	=5	=5	=5	=5	=5	=5	=5	=5	=5	=5	=5	=5	=5	=5	=5	=5	=5
*2\right	*	*	*	*	*	*	*	*	*	*	*	*	*	*	*2\right	*2\right	*2\right	*	*2\right	*
8E-\L	.	.	8g/L	.	(<8.cc/L	.	4E-\	Do-	4e-\	Do-	4b-\	Do-	4gg\	Do-	2G/	2e-\	2gg\	.	2bb-\	.
8E-\	.	.	8g/	.	.	.	.	.	.	.	.	.	.	.	.	.	.	.	.	.
.	.	.	.	.	16a-X/Jk)	.	.	.	.	.	.	.	.	.	.	.	.	.	.	.
8E-\	.	.	8g/	.	16g/LL	.	8E-\	-mi-	8e-\	-mi-	8b-\	-mi-	8gg\	-mi-	.	.	.	.	.	.
.	.	.	.	.	16b-'</	.	.	.	.	.	.	.	.	.	.	.	.	.	.	.
8E-\J	.	.	8g/J	.	16b-'</	.	8E-\	-nus	8e-\	-nus	8b-\	-nus	8gg\	-nus	.	.	.	.	.	.
.	.	.	.	.	16b-'</JJ	.	.	.	.	.	.	.	.	.	.	.	.	.	.	.
*tremolo	*	*	*	*	*	*	*	*	*	*	*	*	*	*	*	*	*	*	*	*
8D\L	.	6	8fn/L	.	(<8.b-/L	.	4D\	De-	4f\	De-	4b-\	De-	4ff\	De-	2B-/	2f\	2ff\	.	2bb-\	.
8D\	.	.	8f/	.	.	.	.	.	.	.	.	.	.	.	.	.	.	.	.	.
.	.	.	.	.	32a-/LL	.	.	.	.	.	.	.	.	.	.	.	.	.	.	.
.	.	.	.	.	32g/JJJ)	.	.	.	.	.	.	.	.	.	.	.	.	.	.	.
8D\	.	.	8f/	.	16f/LL	.	4D\	-us	4f\	-us	4b-\	-us	4ff\	-us	.	.	.	.	.	.
.	.	.	.	.	16b-'</	.	.	.	.	.	.	.	.	.	.	.	.	.	.	.
8D\J	.	.	8f/J	.	16b-'</	.	.	.	.	.	.	.	.	.	.	.	.	.	.	.
.	.	.	.	.	16b-'</JJ	.	.	.	.	.	.	.	.	.	.	.	.	.	.	.
*Xtremolo	*	*	*	*	*	*	*	*	*	*	*	*	*	*	*	*	*	*	*	*
=6	=6	=6	=6	=6	=6	=6	=6	=6	=6	=6	=6	=6	=6	=6	=6	=6	=6	=6	=6	=6
8C/L	.	7	8e-/L	.	16b-/LL	.	4C/	Sa-	4g\	Sa-	4b-\	Sa-	4ee-\	Sa-	4e-\	4g\	2ee-\	.	4bb-\	.
.	.	.	.	.	16b-/	.	.	.	.	.	.	.	.	.	.	.	.	.	.	.
8C/	.	.	8e-/	.	16b-/	.	.	.	.	.	.	.	.	.	.	.	.	.	.	.
.	.	.	.	.	16b-/JJ	.	.	.	.	.	.	.	.	.	.	.	.	.	.	.
*	*	*	*	*	*tremolo	*	*	*	*	*	*	*	*	*	*	*	*	*	*	*
8C/	.	6	8e-/	.	16an/LL	.	4C/	-ba-	4f\	-ba-	4an\	-ba-	4ee-\	-ba-	4f\	4f\	.	.	4aa\	.
.	.	.	.	.	16a/	.	.	.	.	.	.	.	.	.	.	.	.	.	.	.
8C/J	.	.	8e-/J	.	16a/	.	.	.	.	.	.	.	.	.	.	.	.	.	.	.
.	.	.	.	.	16a/JJ	.	.	.	.	.	.	.	.	.	.	.	.	.	.	.
*	*	*	*	*	*Xtremolo	*	*	*	*	*	*	*	*	*	*	*	*	*	*	*
!	!	!	!	!LO:DY:a:t=p.	!	!LO:DY:a:t=p.	!	!	!	!	!	!	!	!	!	!	!	!	!LO:TX:a:t=Solo:rj	!
8BB-/	.	.	8d/L	p	16b-/LL	p	4BB-/	-oth	4f\	-oth	4b-\	-oth	4dd\	-oth	4B-/	4f\	8dd\	.	16bb-\LL	.
!	!	!	!	!	!LO:TX:b:t=|:problem	!	!	!	!	!	!	!	!	!	!	!	!	!	!	!
.	.	.	.	.	16f/	.	.	.	.	.	.	.	.	.	.	.	.	.	16ff\JJ	.
!	!	!	!	!	!	!	!	!	!	!	!	!	!	!	!	!	!LO:TX:a:t=Solo	!	!	!
8r	.	.	16B-/L	.	(<16d/	.	.	.	.	.	.	.	.	.	.	.	4dd\	.	4ff\	.
.	.	.	16d/JJ	.	16f/JJ)	.	.	.	.	.	.	.	.	.	.	.	.	.	.	.
!	!LO:DY:a:rj:t=p.	!	!	!	!	!	!	!	!	!	!	!	!	!	!	!	!	!	!	!
8BB-/	p	.	(<16B-/LL	.	(<16d/LL	.	4r	.	4r	.	4r	.	4r	.	4r	4r	.	.	.	.
.	.	.	16d/)	.	16f/)	.	.	.	.	.	.	.	.	.	.	.	.	.	.	.
8r	.	.	(<16c/	.	(<16e-/	.	.	.	.	.	.	.	.	.	.	.	16ee-\LL	.	16gg\LL	.
.	.	.	16e-/JJ)	.	16g/JJ)	.	.	.	.	.	.	.	.	.	.	.	16cc\JJ	.	16ee-\JJ	.
=7	=7	=7	=7	=7	=7	=7	=7	=7	=7	=7	=7	=7	=7	=7	=7	=7	=7	=7	=7	=7
8BB-/	.	.	(<16B-/LL	.	(<16d/LL	.	0r	.	0r	.	0r	.	0r	.	0r	0r	16cc\LL	.	(>16ee-\LL	.
.	.	.	16d/)	.	16f/)	.	.	.	.	.	.	.	.	.	.	.	16b-\JJ	.	16dd\JJ)	.
8r	.	.	(<16B-/	.	(<16d/	.	.	.	.	.	.	.	.	.	.	.	4b-\	.	4dd\	.
.	.	.	16d/JJ)	.	16f/JJ)	.	.	.	.	.	.	.	.	.	.	.	.	.	.	.
8BB-/	.	.	(<16B-/LL	.	(<16d/LL	.	.	.	.	.	.	.	.	.	.	.	.	.	.	.
.	.	.	16d/)	.	16f/)	.	.	.	.	.	.	.	.	.	.	.	.	.	.	.
8r	.	.	(<16B-/	.	16d/	.	.	.	.	.	.	.	.	.	.	.	16cc\LL	.	16ee-\LL	.
.	.	.	16d/JJ)	.	16f/JJ	.	.	.	.	.	.	.	.	.	.	.	16dd\JJ	.	16ff\JJ	.
!	!	!	!LO:LB:g=original	!	!LO:LB:g=original	!	!	!	!	!	!	!	!	!	!	!	!LO:LB:g=original	!	!LO:LB:g=original	!
8BB-/	.	6: 4:	(<16c/LL	.	(<16e-/LL	.	.	.	.	.	.	.	.	.	.	.	16dd\LL	.	16ff#X\LL	.
.	.	.	16e-/)	.	16g/)	.	.	.	.	.	.	.	.	.	.	.	16ee-\JJ	.	16gg\JJ	.
8r	.	.	(<16c/	.	(<16e-/	.	.	.	.	.	.	.	.	.	.	.	4ee-\	.	4gg\	.
.	.	.	16e-/JJ)	.	16g/JJ)	.	.	.	.	.	.	.	.	.	.	.	.	.	.	.
8BB-/	.	.	(<16c/LL	.	(<16e-/LL	.	.	.	.	.	.	.	.	.	.	.	.	.	.	.
.	.	.	16e-/)	.	16g/)	.	.	.	.	.	.	.	.	.	.	.	.	.	.	.
8r	.	.	(<16An/	.	(<16c/	.	.	.	.	.	.	.	.	.	.	.	16cc\LL	.	16ee-\LL	.
.	.	.	16c/JJ)	.	16e-/JJ)	.	.	.	.	.	.	.	.	.	.	.	16a\JJ	.	16cc\JJ	.
=8	=8	=8	=8	=8	=8	=8	=8-	=8	=8-	=8	=8-	=8	=8-	=8	=8-	=8-	=8	=8	=8	=8
8BB-/L	.	x 3:	8B-/L	.	8d/L	.	.	.	.	.	.	.	.	.	.	.	8b-\L	.	8dd\L	.
8BB-/	.	.	8B-/	.	8d/	.	.	.	.	.	.	.	.	.	.	.	8b-\	.	8dd\	.
8BB-/J	.	.	8B-/J	.	8d/J	.	.	.	.	.	.	.	.	.	.	.	8b-\J	.	8dd\J	.
8r	.	.	8r	.	8r	.	.	.	.	.	.	.	.	.	.	.	8r	.	8r	.
2r	.	.	2r	.	2r	.	.	.	.	.	.	.	.	.	.	.	2r	.	2r	.
!LO:LB:g=original	!	!	!LO:LB:g=original	!	!LO:LB:g=original	!	!LO:LB:g=original	!	!LO:LB:g=original	!	!LO:LB:g=original	!	!LO:LB:g=original	!	!LO:LB:g=original	!LO:LB:g=original	!LO:LB:g=original	!	!LO:LB:g=original	!
=9||	=9||	=9||	=9||	=9||	=9||	=9||	=9||	=9||	=9||	=9||	=9||	=9||	=9||	=9||	=9||	=9||	=9||	=9||	=9||	=9||
*k[b-e-a-]	*	*	*k[b-e-a-]	*	*k[b-e-a-]	*	*k[b-e-a-]	*	*k[b-e-a-]	*	*k[b-e-a-]	*	*k[b-e-a-]	*	*k[b-e-a-]	*k[b-e-a-]	*k[b-e-a-]	*	*k[b-e-a-]	*
*M3/8	*	*	*M3/8	*	*M3/8	*	*M3/8	*	*M3/8	*	*M3/8	*	*M3/8	*	*M3/8	*M3/8	*M3/8	*	*M3/8	*
!	!	!	!	!	!LO:TX:b:t=|:problem	!	!	!	!	!	!	!	!LO:TX:a:B:t=Solo	!	!	!	!	!	!	!
!LO:TX:a:B:t=Allegretto	!LO:DY:a:t=pia&colon;	!	!LO:TX:b:t=|:problem	!	!LO:TX:a:B:t=allegretto	!	!LO:TX:a:B:t=allegretto	!	!LO:TX:a:B:t=allegretto	!	!LO:TX:a:B:t=allegretto	!	!LO:TX:a:B:t=allegretto	!	!	!LO:TX:a:B:t=allegretto	!LO:TX:a:B:t=allegretto	!	!LO:TX:a:B:t=allegretto	!
16E-\LL	p	.	8g/L	.	8b-/L	.	1.r	.	1.r	.	8g\	Ple-	8b-\	Ple-	1.r	1.r	1.r	.	1.r	.
16E-\	.	.	.	.	.	.	.	.	.	.	.	.	.	.	.	.	.	.	.	.
!	!	!	!LO:TX:b:t=|:problem	!	!LO:TX:b:t=|:problem	!	!	!	!	!	!	!	!	!	!	!	!	!	!	!
16E-\	.	.	8e-/	.	8g/	.	.	.	.	.	8e-\	-ni	8g\	-ni	.	.	.	.	.	.
16E-\	.	.	.	.	.	.	.	.	.	.	.	.	.	.	.	.	.	.	.	.
!	!	!	!LO:TX:b:t=|:problem	!	!LO:TX:b:t=|:problem	!	!	!	!	!	!	!	!	!	!	!	!	!	!	!
16E-\	.	.	8f/J	.	8a-/J	.	.	.	.	.	8f\	sunt	8a-\	sunt	.	.	.	.	.	.
16E-\JJ	.	.	.	.	.	.	.	.	.	.	.	.	.	.	.	.	.	.	.	.
=10	=10	=10	=10	=10	=10	=10	=10-	=10	=10-	=10	=10	=10	=10	=10	=10-	=10-	=10-	=10	=10-	=10
*tremolo	*	*	*	*	*	*	*	*	*	*	*	*	*	*	*	*	*	*	*	*
!LO:TX:a:B:t=taſto	!	!	!LO:TX:b:t=|:problem	!	!LO:TX:b:t=|:problem	!	!	!	!	!	!	!	!	!	!	!	!	!	!	!
16E-\LL	.	.	8g/L	.	8b-/L	.	.	.	.	.	8g\	Coe-	8b-\	Coe-	.	.	.	.	.	.
16E-\	.	.	.	.	.	.	.	.	.	.	.	.	.	.	.	.	.	.	.	.
!	!	!	!LO:TX:b:t=|:problem	!	!LO:TX:b:t=|:problem	!LO:DY:a:t=p.	!	!	!	!	!	!	!	!	!	!	!	!	!	!
16E-\	.	.	8a-/	.	8cc/	p	.	.	.	.	8a-\	-li	8cc\	-li	.	.	.	.	.	.
16E-\	.	.	.	.	.	.	.	.	.	.	.	.	.	.	.	.	.	.	.	.
*	*	*	*	*	*	*	*	*	*	*	*	*ij	*	*ij	*	*	*	*	*	*
!	!	!	!LO:TX:b:t=|:problem	!	!	!	!	!	!	!	!	!	!	!	!	!	!	!	!	!
16E-\	.	.	8f/J	.	8a-/J	.	.	.	.	.	8f\	ple-	8a-\	ple-	.	.	.	.	.	.
16E-\JJ	.	.	.	.	.	.	.	.	.	.	.	.	.	.	.	.	.	.	.	.
=11	=11	=11	=11	=11	=11	=11	=11-	=11	=11-	=11	=11	=11	=11	=11	=11-	=11-	=11-	=11	=11-	=11
!	!	!	!LO:TX:b:t=|:problem	!	!LO:TX:b:t=|:problem	!	!	!	!	!	!	!	!	!	!	!	!	!	!	!
16E-\LL	.	.	8g/L	.	8b-/L	.	.	.	.	.	8g\	-ni	8b-\	-ni	.	.	.	.	.	.
16E-\	.	.	.	.	.	.	.	.	.	.	.	.	.	.	.	.	.	.	.	.
!	!	!	!LO:TX:b:t=|:problem	!	!LO:TX:b:t=|:problem	!	!	!	!	!	!	!	!	!	!	!	!	!	!	!
16E-\	.	.	8e-/	.	8g/	.	.	.	.	.	8e-\	sunt	8g\	sunt	.	.	.	.	.	.
*	*	*	*	*	*	*	*	*	*	*	*	*Xij	*	*Xij	*	*	*	*	*	*
16E-\	.	.	.	.	.	.	.	.	.	.	.	.	.	.	.	.	.	.	.	.
!	!	!	!LO:TX:b:t=|:problem	!	!LO:TX:b:t=|:problem	!	!	!	!	!	!	!	!	!	!	!	!	!	!	!
16E-\	.	.	8f/J	.	8a-/J	.	.	.	.	.	8f\	et	8a-\	et	.	.	.	.	.	.
16E-\JJ	.	.	.	.	.	.	.	.	.	.	.	.	.	.	.	.	.	.	.	.
=12	=12	=12	=12	=12	=12	=12	=12-	=12	=12-	=12	=12	=12	=12	=12	=12-	=12-	=12-	=12	=12-	=12
!	!	!	!	!	!LO:TX:t=P:problem=mixed beam	!	!	!	!	!	!	!	!	!	!	!	!	!	!	!
!	!	!	!LO:TX:b:t=|:problem	!	!LO:TX:b:t=|:problem	!	!	!	!	!	!	!	!	!	!	!	!	!	!	!
16E-\LL	.	.	8g/L	.	8b-/L	.	.	.	.	.	8g\	ter-	8b-\	ter-	.	.	.	.	.	.
16E-\	.	.	.	.	.	.	.	.	.	.	.	.	.	.	.	.	.	.	.	.
!	!	!	!LO:TX:b:t=|:problem	!	!LO:TX:b:t=|:problem	!	!	!	!	!	!	!	!	!	!	!	!	!	!	!
16E-\	.	.	8e-/	.	8g/	.	.	.	.	.	8e-\	-ra	8g\	-ra	.	.	.	.	.	.
16E-\	.	.	.	.	.	.	.	.	.	.	.	.	.	.	.	.	.	.	.	.
!	!	!	!LO:TX:b:t=|:problem	!	!LO:TX:a:t=|:problem	!	!	!	!	!	!	!	!	!	!	!	!	!	!	!
16E-\	.	.	8g/J	.	8ee-\J	.	.	.	.	.	8g\	sunt	8ee-\	sunt	.	.	.	.	.	.
16E-\JJ	.	.	.	.	.	.	.	.	.	.	.	.	.	.	.	.	.	.	.	.
=13	=13	=13	=13	=13	=13	=13	=13-	=13	=13-	=13	=13	=13	=13	=13	=13-	=13-	=13-	=13	=13-	=13
!	!	!	!LO:TX:b:t=|:problem	!	!LO:TX:a:t=|:problem	!	!	!	!	!	!	!	!	!	!	!	!	!	!	!
16E-\LL	.	.	8g/L	.	8ee-\L	.	1.r	.	1.r	.	8g\	coe-	8ee-\	coe-	1.r	1.r	1.r	.	1.r	.
16E-\	.	.	.	.	.	.	.	.	.	.	.	.	.	.	.	.	.	.	.	.
!	!	!	!LO:TX:b:t=|:problem	!	!LO:TX:a:t=|:problem	!	!	!	!	!	!	!	!	!	!	!	!	!	!	!
16E-\	.	.	8b-/	.	8dd\	.	.	.	.	.	8b-\	-li	8dd\	-li	.	.	.	.	.	.
16E-\	.	.	.	.	.	.	.	.	.	.	.	.	.	.	.	.	.	.	.	.
!	!	!	!LO:TX:b:t=|:problem	!	!LO:TX:a:t=|:problem	!	!	!	!	!	!	!	!	!	!	!	!	!	!	!
16E-\	.	.	8a-/J	.	8cc\J	.	.	.	.	.	8a-\	et	8cc\	et	.	.	.	.	.	.
16E-\JJ	.	.	.	.	.	.	.	.	.	.	.	.	.	.	.	.	.	.	.	.
*Xtremolo	*	*	*	*	*	*	*	*	*	*	*	*	*	*	*	*	*	*	*	*
=14	=14	=14	=14	=14	=14	=14	=14-	=14	=14-	=14	=14	=14	=14	=14	=14-	=14-	=14-	=14	=14-	=14
!!mixed beam:problem
!LO:TX:t=P:problem=mixed beam	!	!	!LO:TX:b:t=|:problem	!	!	!	!	!	!	!	!	!	!	!	!	!	!	!	!	!
8E-\L	.	.	4g/	.	4b-/	.	.	.	.	.	4g\	ter-	4b-\	ter-	.	.	.	.	.	.
8EE-/J	.	.	.	.	.	.	.	.	.	.	.	.	.	.	.	.	.	.	.	.
8r	.	.	(<16f/LL	.	16a-/LL	.	.	.	.	.	16f\LL	-ra	16a-\LL	-ra	.	.	.	.	.	.
.	.	.	16e-/JJ)	.	16g/JJ	.	.	.	.	.	16e-\JJ	.	16g\JJ	.	.	.	.	.	.	.
!	!	!	!	!	!	!	!	!	!	!	!LO:LB:g=original	!	!	!	!	!	!	!	!	!
=15	=15	=15	=15	=15	=15	=15	=15-	=15	=15-	=15	=15	=15	=15	=15	=15-	=15-	=15-	=15	=15-	=15
8BB-\L	.	.	8d/L	.	8f/L	.	.	.	.	.	8d\	Glo-	8f/	Glo-	.	.	.	.	.	.
8D\	.	.	8f/	.	8a-/	.	.	.	.	.	8f\	-ri-	8a-\	-ri-	.	.	.	.	.	.
8E-\J	.	.	8e-/J	.	8g/J	.	.	.	.	.	8e-\	-a	8g\	-a	.	.	.	.	.	.
!	!	!	!	!	!	!	!	!	!	!	!	!	!LO:LB:g=original	!	!	!	!	!	!	!
=16	=16	=16	=16	=16	=16	=16	=16-	=16	=16-	=16	=16	=16	=16	=16	=16-	=16-	=16-	=16	=16-	=16
8B-\L	.	x 4	8e-/L	.	8g/L	.	.	.	.	.	8e-\	tu-	8g/	tu-	.	.	.	.	.	.
16B-\L	.	x 3	8d/J	.	8f/J	.	.	.	.	.	8d\	-a	8f/	-a	.	.	.	.	.	.
16A-\	.	.	.	.	.	.	.	.	.	.	.	.	.	.	.	.	.	.	.	.
16G\	.	.	8r	.	8r	.	.	.	.	.	8r	.	8r	.	.	.	.	.	.	.
16F\JJ	.	.	.	.	.	.	.	.	.	.	.	.	.	.	.	.	.	.	.	.
=17	=17	=17	=17	=17	=17	=17	=17	=17	=17	=17	=17	=17	=17	=17	=17	=17	=17	=17	=17	=17
!!mixed beam:problem
!	!	!	!	!	!	!	!	!	!	!	!	!	!	!	!LO:TX:t=P:problem=mixed beam	!	!	!	!	!
!LO:TX:a:t=Tutti	!	!	!	!	!	!	!	!	!	!	!	!	!	!	!LO:TX:a:B:t=allegretto	!	!	!	!	!
8E-\L	.	.	4.r	.	4.r	.	8E-\	Ple-	8B-\	Ple-	8g\	ple-	8ee-\	ple-	8G/L	8e-\L	8ee-\L	.	8gg\L	.
8E-\	.	.	.	.	.	.	8E-\	-ni	8B-\	-ni	8g\	-ni	8ee-\	-ni	8G/	8e-\	8gg\	.	8bb-\	.
8E-\J	.	.	.	.	.	.	8E-\	sunt	8B-\	sunt	8g\	sunt	8ee-\	sunt	8e-\J	8g\J	8ee-\J	.	8gg\J	.
=18	=18	=18	=18	=18	=18	=18	=18	=18	=18	=18	=18	=18	=18	=18	=18	=18	=18	=18	=18	=18
!!mixed beam:problem
!LO:TX:t=P:problem=mixed beam	!	!	!	!LO:DY:a:t=for	!	!LO:DY:a:t=for	!	!	!	!	!	!	!	!	!	!	!	!	!	!
8B-\L	.	x 4	(<16e-/LL	f	(<16g/LL	f	8B-\	Coe-	8B-\	Coe-	8g\	Coe-	8ee-\	coe-	8e-\L	8g\L	8ee-\L	.	8gg\L	.
.	.	.	32f/L	.	32a-/L	.	.	.	.	.	.	.	.	.	.	.	.	.	.	.
.	.	.	32e-/JJJ)	.	32g/JJJ)	.	.	.	.	.	.	.	.	.	.	.	.	.	.	.
!	!	!	!LO:TX:b:t=|:problem	!	!LO:TX:b:t=|:problem	!	!	!	!	!	!	!	!	!	!	!	!	!	!	!
8BB-/J	.	x 3	16d/LL	.	16f/LL	.	8BB-/	-li	8B-\	-li	8f\	-li	8dd\	-li	8B-\J	8f\J	8dd\J	.	8ff\J	.
!	!	!	!LO:TX:b:t=|:problem	!	!LO:TX:b:t=|:problem	!	!	!	!	!	!	!	!	!	!	!	!	!	!	!
.	.	.	16f/	.	16a-/	.	.	.	.	.	.	.	.	.	.	.	.	.	.	.
!	!	!	!LO:TX:b:t=|:problem	!	!LO:TX:b:t=|:problem	!	!	!	!	!	!	!	!	!	!	!	!	!	!	!
8r	.	.	16g/	.	16b-/	.	8r	.	8r	.	8r	.	8r	.	8r	8r	8r	.	8r	.
!	!	!	!LO:TX:b:t=|:problem	!	!LO:TX:b:t=|:problem	!	!	!	!	!	!	!	!	!	!	!	!	!	!	!
.	.	.	16f/JJ	.	16a-/JJ	.	.	.	.	.	.	.	.	.	.	.	.	.	.	.
!	!	!	!LO:LB:g=original	!	!LO:LB:g=original	!	!	!	!	!	!	!	!	!	!	!	!	!	!	!
=19	=19	=19	=19	=19	=19	=19	=19	=19	=19	=19	=19	=19	=19	=19	=19	=19	=19	=19	=19	=19
*	*	*	*	*	*	*	*	*ij	*	*ij	*	*	*	*	*	*	*	*	*	*
8BB-/L	.	.	(<16e-/LL	.	(<16a-/LL	.	8B-\	Ple-	8B-\	Ple-	8f\	ple-	8dd\	ple-	8B-/L	8f\L	8dd\L	.	8ff\L	.
.	.	.	16d/J)	.	16g/J)	.	.	.	.	.	.	.	.	.	.	.	.	.	.	.
!	!	!	!LO:TX:b:t=|:problem	!	!LO:TX:b:t=|:problem	!	!	!	!	!	!	!	!	!	!	!	!	!	!	!
8BB-/	.	.	8d/J	.	8g/J	.	8B-\	-ni	8B-\	-ni	8a-\	-ni	8ff\	-ni	8B-/	8f\	8ff\	.	8aa-\	.
8BB-/J	.	.	8r	.	8r	.	8B-\	sunt	8B-\	sunt	8a-\	sunt	8ff\	sunt	8B-/J	8f\J	8ff\J	.	8aa-\J	.
!LO:LB:g=original	!	!	!	!	!	!	!	!	!	!	!	!	!	!	!	!	!	!	!	!
=20	=20	=20	=20	=20	=20	=20	=20	=20	=20	=20	=20	=20	=20	=20	=20	=20	=20	=20	=20	=20
!!mixed beam:problem
!LO:TX:t=P:problem=mixed beam	!	!	!	!	!	!	!	!	!	!	!	!	!	!	!	!	!	!	!	!
8E-\L	.	x 4	16f/LL	.	(<16a-/LL	.	8e-\	Coe-	8B-\	coe-	8a-\	Coe-	8ff\	coe-	8B-/L	8f\L	8ff\L	.	8aa-\L	.
.	.	.	(<32g/L	.	32b-/L	.	.	.	.	.	.	.	.	.	.	.	.	.	.	.
.	.	.	32f/JJJ)	.	32a-/JJJ)	.	.	.	.	.	.	.	.	.	.	.	.	.	.	.
!	!	!	!LO:TX:b:t=|:problem	!	!LO:TX:a:t=|:problem	!	!	!	!	!	!	!	!	!	!	!	!	!	!	!
8EE-/J	.	x 3	16e-/LL	.	16g\LL	.	8E-\	-li	8B-\	-li	8g\	-li	8ee-\	-li	8G/J	8e-\J	8ee-\J	.	8gg\J	.
*	*	*	*	*	*	*	*	*Xij	*	*Xij	*	*	*	*	*	*	*	*	*	*
!	!	!	!LO:TX:b:t=|:problem	!	!LO:TX:a:t=|:problem	!	!	!	!	!	!	!	!	!	!	!	!	!	!	!
.	.	.	16g/	.	16b-\	.	.	.	.	.	.	.	.	.	.	.	.	.	.	.
!	!	!	!LO:TX:b:t=|:problem	!	!LO:TX:a:t=|:problem	!	!	!	!	!	!	!	!	!	!	!	!	!	!	!
8r	.	.	16a-/	.	16cc\	.	8r	.	8r	.	8r	.	8r	.	8r	8r	8r	.	8r	.
!	!	!	!LO:TX:b:t=|:problem	!	!LO:TX:a:t=|:problem	!	!	!	!	!	!	!	!	!	!	!	!	!	!	!
.	.	.	16f/JJ	.	16dd\JJ	.	.	.	.	.	.	.	.	.	.	.	.	.	.	.
=21	=21	=21	=21	=21	=21	=21	=21	=21	=21	=21	=21	=21	=21	=21	=21	=21	=21	=21	=21	=21
*	*	*	*	*	*	*	*	*	*	*ij	*	*	*	*	*	*	*	*	*	*
!	!	!	!	!	!LO:TX:a:t=|:problem	!	!	!	!	!	!	!	!	!	!	!	!	!	!	!
8E-/L	.	.	8g/L	.	16ee-\LL	.	8E-\	ple-	8B-\	ple-	8b-\	ple-	8gg\	ple-	4B-/	4B-/	4b-\	.	8gg\L	.
.	.	.	.	.	16b-\	.	.	.	.	.	.	.	.	.	.	.	.	.	.	.
8D/	.	6 x	8f/	.	16an\	.	8D\	-ni	8f\	-ni	8b-\	-ni	8ff\	-ni	.	.	.	.	8ff\	.
.	.	.	.	.	16b-\	.	.	.	.	.	.	.	.	.	.	.	.	.	.	.
8C/J	.	6 x	8e-/J	.	16cc\	.	8C/	sunt	8f\	sunt	8an\	sunt	8ee-\	sunt	8r	8r	8a\	.	8ee-\J	.
.	.	.	.	.	16a\JJ	.	.	.	.	.	.	.	.	.	.	.	.	.	.	.
!	!	!	!	!	!	!	!	!	!	!	!LO:LB:g=original	!	!	!	!	!	!	!	!	!
=22	=22	=22	=22	=22	=22	=22	=22	=22	=22	=22	=22	=22	=22	=22	=22	=22	=22	=22	=22	=22
8BB-/L	.	7 3	8d/L	.	16b-/LL	.	8BB-/L	coe-	4f\	coe-	8b-\L	Coe-	8dd\L	coe-	4.r	4.r	8b-\L	.	8dd\L	.
.	.	.	.	.	16f/	.	.	.	.	.	.	.	.	.	.	.	.	.	.	.
8C/	.	6 3	8e-/	.	16b-/	.	8C/J	.	.	.	8an\J	.	8ee-\J	.	.	.	8a\	.	8ee-\	.
.	.	.	.	.	16an/	.	.	.	.	.	.	.	.	.	.	.	.	.	.	.
8D/J	.	-5r 3	8f/J	.	16f/	.	8D\	-li	8B-\	-li	8a-X\	-li	8ff\	-li	.	.	8b-\J	.	8ff\J	.
*	*	*	*	*	*	*	*	*	*	*Xij	*	*	*	*	*	*	*	*	*	*
.	.	.	.	.	16a-X/JJ	.	.	.	.	.	.	.	.	.	.	.	.	.	.	.
=23	=23	=23	=23	=23	=23	=23	=23	=23	=23	=23	=23	=23	=23	=23	=23	=23	=23	=23	=23	=23
*	*	*	*	*	*	*	*	*ij	*	*	*	*ij	*	*ij	*	*	*	*	*	*
8E-/L	.	6 x	8g/L	.	16g/LL	.	8E-\	coe-	8e-\	coe-	8g\	Coe-	8gg\	coe-	4B-/	4B-/	4b-\	.	8gg\L	.
.	.	.	.	.	16b-/	.	.	.	.	.	.	.	.	.	.	.	.	.	.	.
8D/	.	x 3	8f/	.	16an/	.	8D\	-li	8f\	-li	8b-\	-li	8ff\	-li	.	.	.	.	8ff\	.
*	*	*	*	*	*	*	*	*Xij	*	*	*	*Xij	*	*Xij	*	*	*	*	*	*
.	.	.	.	.	16b-/	.	.	.	.	.	.	.	.	.	.	.	.	.	.	.
8C/J	.	6 3	8e-/J	.	16cc/	.	8C/	et	8f\	et	8an\	et	8ee-\	et	8r	8r	8a\	.	8ee-\J	.
.	.	.	.	.	16a/JJ	.	.	.	.	.	.	.	.	.	.	.	.	.	.	.
!	!	!	!	!	!	!	!LO:LB:g=original	!	!LO:LB:g=original	!	!	!	!LO:LB:g=original	!	!	!	!LO:LB:g=original	!	!LO:LB:g=original	!
=24	=24	=24	=24	=24	=24	=24	=24	=24	=24	=24	=24	=24	=24	=24	=24	=24	=24	=24	=24	=24
8BB-/L	.	7 3	8d/L	.	16b-/LL	.	8BB-/L	ter-	4f\	ter-	8b-\L	ter-	8dd\L	ter-	4.r	4.r	8b-\L	.	8dd\L	.
.	.	.	.	.	16f/	.	.	.	.	.	.	.	.	.	.	.	.	.	.	.
!	!	!	!	!	!	!	!	!	!	!	!LO:SIV:v:s:t=8an\J	!	!	!	!	!	!	!	!	!
8C/	.	6 3	8e-/	.	16b-/	.	8C/J	.	.	.	8a-\J	.	8ee-\J	.	.	.	8a\	.	8ee-\	.
.	.	.	.	.	16an/	.	.	.	.	.	.	.	.	.	.	.	.	.	.	.
8D/J	.	n5r 3	8f/J	.	16f/	.	8D\	-ra	8B-\	-ra	8a-X\	-ra	8ff\	-ra	.	.	8b-\J	.	8ff\J	.
.	.	.	.	.	16a-X/JJ	.	.	.	.	.	.	.	.	.	.	.	.	.	.	.
=25	=25	=25	=25	=25	=25	=25	=25	=25	=25	=25	=25	=25	=25	=25	=25	=25	=25	=25	=25	=25
8E-\L	.	6 x	8g/L	.	16g\LL	.	8E-\	Glo-	8g\	Glo-	8g\	Glo-	8ee-\	Glo-	4e-\	4g\	4.cc\	.	4gg\	.
.	.	.	.	.	16cc\	.	.	.	.	.	.	.	.	.	.	.	.	.	.	.
8E-\	.	.	8g/	.	16ee-\	.	8E-\	-ri-	8g\	-ri-	8cc\	-ri-	8ee-\	-ri-	.	.	.	.	.	.
.	.	.	.	.	16cc\	.	.	.	.	.	.	.	.	.	.	.	.	.	.	.
8F\J	.	n x	8e-/J	.	16b-\	.	8F\	-a	8f\	-a	8an\	-a	8cc\	-a	8f\	8aX\	.	.	8aa\	.
.	.	.	.	.	16an\JJ	.	.	.	.	.	.	.	.	.	.	.	.	.	.	.
=26	=26	=26	=26	=26	=26	=26	=26	=26	=26	=26	=26	=26	=26	=26	=26	=26	=26	=26	=26	=26
*	*	*	*	*	*	*	*	*ij	*	*ij	*	*	*	*ij	*	*	*	*	*	*
8G\L	.	.	8d/L	.	16cc\LL	.	8G\	Glo-	8g\	Glo-	8b-\	Glo-	8dd\	Glo-	4.B-/	4.b-\	4.dd\	.	4bb-\	.
.	.	.	.	.	16b-\	.	.	.	.	.	.	.	.	.	.	.	.	.	.	.
8G\	.	.	8d/	.	16an\	.	8G\	-ri-	8g\	-ri-	8b-\	-ri-	8dd\	-ri-	.	.	.	.	.	.
.	.	.	.	.	16b-\	.	.	.	.	.	.	.	.	.	.	.	.	.	.	.
8D\J	.	6 x	8f/J	.	16dd\	.	8D\	-a	8f\	-a	8b-\	-a	8ff\	-a	.	.	.	.	8ff\	.
.	.	.	.	.	16b-\JJ	.	.	.	.	.	.	.	.	.	.	.	.	.	.	.
*	*	*	*	*	*	*	*	*Xij	*	*Xij	*	*	*	*Xij	*	*	*	*	*	*
!	!	!	!	!	!LO:LB:g=original	!	!	!	!	!	!	!	!	!	!LO:LB:g=original	!	!	!	!	!
=27	=27	=27	=27	=27	=27	=27	=27	=27	=27	=27	=27	=27	=27	=27	=27	=27	=27	=27	=27	=27
!!mixed beam:problem
!LO:TX:t=P:problem=mixed beam	!	!	!	!	!	!	!	!	!	!	!	!	!	!	!	!	!	!	!	!
8E-\L	.	6 x	8e-/L	.	16ee-\LL	.	8E-\	tu-	8g\	tu-	8cc\L	tu-	8ee-\L	tu-	8e-\L	8g\L	8cc\L	.	8ee-\L	.
.	.	.	.	.	16cc\JJ	.	.	.	.	.	.	.	.	.	.	.	.	.	.	.
8F\	.	x 4	8d/	.	8b-\L	.	4F\	.	4f\	.	8b-\	.	8dd\	.	8f\	8f\	8b-\	.	8dd\	.
8FF/J	.	x n	8c/J	.	8an\J	.	.	.	.	.	8an\J	.	8cc\J	.	8f\J	8f\J	8a\J	.	8cc\J	.
!	!	!	!	!	!	!	!	!	!	!	!	!	!	!	!	!LO:LB:g=original	!	!	!	!
=28	=28	=28	=28	=28	=28	=28	=28	=28	=28	=28	=28	=28	=28	=28	=28	=28	=28	=28	=28	=28
!!mixed beam:problem
!	!LO:DY:a:t=p.	!	!	!	!LO:TX:t=P:problem=mixed beam	!	!	!	!	!	!	!	!	!	!	!	!LO:TX:a:t=Solo	!	!LO:TX:a:t=Solo	!
8BB-/L	p	.	8d/L	.	8b-\L	.	4BB-/	-a	4f\	-a	4b-\	-a	4dd\	-a	4B-/	4f\	8b-\L	.	8dd\L	.
8BB-/J	.	.	8d/J	.	8d/J	.	.	.	.	.	.	.	.	.	.	.	8dd\	.	8ff\	.
8r	.	.	8r	.	8r	.	8r	.	8r	.	8r	.	8r	.	8r	8r	8dd\J	.	8ff\J	.
!	!	!	!LO:LB:g=original	!	!	!	!	!	!	!	!	!	!	!	!	!	!	!	!	!
=29	=29	=29	=29	=29	=29	=29	=29	=29	=29	=29	=29	=29	=29	=29	=29	=29	=29	=29	=29	=29
!	!	!	!	!LO:DY:a:t=p.	!	!LO:DY:a:t=p.	!	!	!	!	!	!	!	!	!	!	!	!	!	!
8BB-\L	.	.	4B-/	p	4d/	p	1.r	.	1.r	.	2.r	.	1.r	.	1.r	1.r	(>8dd\L	.	(>8ff\L	.
8D\	.	.	.	.	.	.	.	.	.	.	.	.	.	.	.	.	8b-\	.	8dd\	.
8F\J	.	x n	8c/	.	8e-/	.	.	.	.	.	.	.	.	.	.	.	8cc\J)	.	8ee-\J)	.
=30	=30	=30	=30	=30	=30	=30	=30-	=30	=30-	=30	=30-	=30	=30-	=30	=30-	=30-	=30	=30	=30	=30
!	!	!	!	!	!	!	!	!	!	!	!	!	!	!	!	!	!LO:TX:a:t=|:problem	!	!	!
8B-\L	.	.	8d/L	.	8f/L	.	.	.	.	.	.	.	.	.	.	.	8dd\L	.	8ff'>\L	.
8E-\	.	6 x	8e-/	.	8g/	.	.	.	.	.	.	.	.	.	.	.	(>16ee-\L	.	(>16gg\L	.
.	.	.	.	.	.	.	.	.	.	.	.	.	.	.	.	.	16cc\)	.	16ee-\)	.
8F\J	.	n x	8c/J	.	8e-/J	.	.	.	.	.	.	.	.	.	.	.	(>16a\	.	(>16cc\	.
.	.	.	.	.	.	.	.	.	.	.	.	.	.	.	.	.	16cc\JJ)	.	16ee-\JJ)	.
=31	=31	=31	=31	=31	=31	=31	=31-	=31	=31-	=31	=31-	=31	=31-	=31	=31-	=31-	=31	=31	=31	=31
!!mixed beam:problem
!LO:TX:t=P:problem=mixed beam	!	!	!	!	!	!	!	!	!	!	!	!	!	!	!	!	!	!	!	!
8B-\L	.	.	8c/L	.	8e-/L	.	.	.	.	.	4.r	.	.	.	.	.	(>8cc\L	.	(>8ee-\L	.
8BB-/J	.	.	8B-/J	.	8d/J	.	.	.	.	.	.	.	.	.	.	.	8b-\J)	.	8dd'>\J)	.
8r	.	.	8r	.	8r	.	.	.	.	.	.	.	.	.	.	.	8r	.	8r	.
!LO:LB:g=original	!	!	!	!	!	!	!	!	!	!	!LO:LB:g=original	!	!	!	!	!	!	!	!	!
=32	=32	=32	=32	=32	=32	=32	=32-	=32	=32-	=32	=32	=32	=32-	=32	=32-	=32-	=32	=32	=32	=32
!	!	!	!	!	!LO:TX:b:t=|:problem	!LO:DY:a:t=for	!	!	!	!	!	!	!	!	!	!	!	!	!	!
4.r	.	.	4.r	.	8b-/L	f	.	.	.	.	8b-\	ple-	.	.	.	.	4.r	.	4.r	.
!	!	!	!	!	!LO:TX:b:t=|:problem	!	!	!	!	!	!	!	!	!	!	!	!	!	!	!
.	.	.	.	.	8g/	.	.	.	.	.	8g\	-ni	.	.	.	.	.	.	.	.
!	!	!	!	!	!LO:TX:b:t=|:problem	!	!	!	!	!	!	!	!	!	!	!	!	!	!	!
.	.	.	.	.	8f/J	.	.	.	.	.	8f\	sunt	.	.	.	.	.	.	.	.
=33	=33	=33	=33	=33	=33	=33	=33	=33	=33	=33	=33	=33	=33	=33	=33-	=33-	=33	=33	=33	=33
!LO:TX:a:B:t=Tutti	!	!	!	!LO:DY:a:t=for	!	!	!	!	!	!	!	!	!	!	!	!	!	!LO:DY:a:t=f.	!	!LO:DY:a:t=for
8B-\L	.	n4r: 2:	16G/LL	f	4en/	.	8B-\	Ple-	8g\	Ple-	4en\	Coe-	8cc\	ple-	1.r	1.r	4.cc\	f	4.eeX\	f
.	.	.	16c/	.	.	.	.	.	.	.	.	.	.	.	.	.	.	.	.	.
8G\	.	.	16G/	.	.	.	8G\	-ni	8g\	-ni	.	.	8cc\	-ni	.	.	.	.	.	.
.	.	.	16c/	.	.	.	.	.	.	.	.	.	.	.	.	.	.	.	.	.
8En\J	.	.	16G/	.	16f/LL	.	8En\	sunt	8g\	sunt	16f\LL	-li	8cc\	sunt	.	.	.	.	.	.
.	.	.	16c/JJ	.	16g/JJ	.	.	.	.	.	16g\JJ	.	.	.	.	.	.	.	.	.
!	!	!	!	!	!	!	!	!	!	!	!	!	!	!	!	!	!LO:LB:g=original	!	!LO:LB:g=original	!
=34	=34	=34	=34	=34	=34	=34	=34	=34	=34	=34	=34	=34	=34	=34	=34-	=34-	=34	=34	=34	=34
4F\	.	.	16A-/LL	.	8a-/L	.	4F\	Coe-	4a-\	Coe-	8a-\	ple-	4cc\	coe-	.	.	4cc\	.	4ff\	.
.	.	.	16c/	.	.	.	.	.	.	.	.	.	.	.	.	.	.	.	.	.
.	.	.	16A-/	.	8f/	.	.	.	.	.	8f\	-ni	.	.	.	.	.	.	.	.
.	.	.	16c/	.	.	.	.	.	.	.	.	.	.	.	.	.	.	.	.	.
8G\	.	-6r x	16A-/	.	8e-X/J	.	8G\	-li	8g\	-li	8e-X\	sunt	8b-\	-li	.	.	8b-\	.	8ee-X\	.
.	.	.	16B-/JJ	.	.	.	.	.	.	.	.	.	.	.	.	.	.	.	.	.
=35	=35	=35	=35	=35	=35	=35	=35	=35	=35	=35	=35	=35	=35	=35	=35-	=35-	=35	=35	=35	=35
*	*	*	*	*	*	*	*	*ij	*	*ij	*	*	*	*ij	*	*	*	*	*	*
8A-\L	.	4: 2:	16A-/LL	.	4d/	.	8A-\	Coe-	8f\	Coe-	4d\	Coe-	8b-\	coe-	.	.	4.b-\	.	4.dd\	.
.	.	.	16B-/	.	.	.	.	.	.	.	.	.	.	.	.	.	.	.	.	.
8F\	.	.	16A-/	.	.	.	8F\	-li	8f\	-li	.	.	8b-\	-li	.	.	.	.	.	.
*	*	*	*	*	*	*	*	*Xij	*	*Xij	*	*	*	*Xij	*	*	*	*	*	*
.	.	.	16B-/	.	.	.	.	.	.	.	.	.	.	.	.	.	.	.	.	.
8D\J	.	.	16A-/	.	16e-/LL	.	8D\	et	8f\	et	16e-\LL	.	8b-\	et	.	.	.	.	.	.
.	.	.	16B-/JJ	.	16f/JJ	.	.	.	.	.	16f\JJ	.	.	.	.	.	.	.	.	.
!	!	!	!	!	!	!	!	!	!	!	!	!	!LO:LB:g=original	!	!	!	!	!	!	!
=36	=36	=36	=36	=36	=36	=36	=36	=36	=36	=36	=36	=36	=36	=36	=36-	=36-	=36	=36	=36	=36
4E-X\	.	.	16G/LL	.	8g/L	.	4E-\	ter-	4g\	ter-	4g\	-li	4b-\	ter-	.	.	4b-\	.	4ee-\	.
.	.	.	16B-/	.	.	.	.	.	.	.	.	.	.	.	.	.	.	.	.	.
.	.	.	16G/	.	8g/	.	.	.	.	.	.	.	.	.	.	.	.	.	.	.
.	.	.	16B-/	.	.	.	.	.	.	.	.	.	.	.	.	.	.	.	.	.
8F\	.	6 x	16d/	.	8a-/J	.	8F\	-ra	8f\	-ra	8a-\	et	8dd\	-ra	.	.	8a-\	.	8dd\	.
.	.	.	16B-/JJ	.	.	.	.	.	.	.	.	.	.	.	.	.	.	.	.	.
=37	=37	=37	=37	=37	=37	=37	=37	=37	=37	=37	=37	=37	=37	=37	=37	=37	=37	=37	=37	=37
4.G\	.	6 x	4.B-/	.	8b-/L	.	4G\	Glo-	4e-\	Glo-	4b-\	ter-	4ee-\	Glo-	4.e-\	4.g\	4.b-\	.	4.ee-\	.
.	.	.	.	.	16a-/L	.	.	.	.	.	.	.	.	.	.	.	.	.	.	.
.	.	.	.	.	16g/	.	.	.	.	.	.	.	.	.	.	.	.	.	.	.
.	.	.	.	.	16f/	.	8G\	-ri-	8e-\	-ri-	8b-\	-ra	8ee-\	-ri-	.	.	.	.	.	.
.	.	.	.	.	16e-/JJ	.	.	.	.	.	.	.	.	.	.	.	.	.	.	.
!	!	!	!	!	!LO:LB:g=original	!	!LO:LB:g=original	!	!LO:LB:g=original	!	!	!	!	!	!	!	!	!	!	!
=38	=38	=38	=38	=38	=38	=38	=38	=38	=38	=38	=38	=38	=38	=38	=38	=38	=38	=38	=38	=38
4.A-\	.	6 x	4.c/	.	16g/LL	.	4.A-\	-a	4.c\	-a	4.cc\	Glo-	4.ff\	-a	4.f\	4.a-\	4.cc\	.	4.ff\	.
.	.	.	.	.	16f/	.	.	.	.	.	.	.	.	.	.	.	.	.	.	.
.	.	.	.	.	16e-/	.	.	.	.	.	.	.	.	.	.	.	.	.	.	.
.	.	.	.	.	16f/	.	.	.	.	.	.	.	.	.	.	.	.	.	.	.
.	.	.	.	.	16a-/	.	.	.	.	.	.	.	.	.	.	.	.	.	.	.
.	.	.	.	.	16f/JJ	.	.	.	.	.	.	.	.	.	.	.	.	.	.	.
=39	=39	=39	=39	=39	=39	=39	=39	=39	=39	=39	=39	=39	=39	=39	=39	=39	=39	=39	=39	=39
*	*	*	*	*	*	*	*	*	*	*ij	*	*	*	*ij	*	*	*	*	*	*
8B-\L	.	x 3:	8B-/L	.	(<8.d/L	.	8B-\	Glo-	8B-\	Glo-	8f\	.	8dd\	Glo-	4B-/	4f\	4dd\	.	4ff\	.
8A-\	.	.	8B-/	.	.	.	8A-\	-ri-	8B-\	-ri-	8f\	-ri-	8dd\	-ri-	.	.	.	.	.	.
.	.	.	.	.	32c/LL	.	.	.	.	.	.	.	.	.	.	.	.	.	.	.
.	.	.	.	.	32d/JJ)	.	.	.	.	.	.	.	.	.	.	.	.	.	.	.
8G\J	.	6 x	8B-/J	.	8e-/J)	.	8G\	-a	8B-\	-a	8g\	-a	8ee-\	-a	8e-\	8g\	8ee-\	.	8gg\	.
*	*	*	*	*	*	*	*	*	*	*Xij	*	*	*	*Xij	*	*	*	*	*	*
!	!	!	!LO:LB:g=original	!	!	!	!	!	!	!	!LO:LB:g=original	!	!	!	!	!	!	!	!	!
=40	=40	=40	=40	=40	=40	=40	=40	=40	=40	=40	=40	=40	=40	=40	=40	=40	=40	=40	=40	=40
!!mixed beam:problem
!LO:TX:t=P:problem=mixed beam	!	!	!	!	!	!	!LO:TX:t=P:problem=mixed beam	!	!	!	!	!	!	!	!	!	!	!	!	!
8A-\L	.	6 x	8f/L	.	16cc/LL	.	8A-\L	tu-	8c\	tu-	8a-\L	tu-	8ff\L	tu-	8f\L	8a-\L	8ff\L	.	8aa-\L	.
.	.	.	.	.	16a-/JJ	.	.	.	.	.	.	.	.	.	.	.	.	.	.	.
8B-\	.	x 4	8e-/	.	8g/L	.	8B-\	.	4B-\	.	8g\	.	8ee-\	.	8e-\	8g\	8ee-\	.	8gg\	.
8BB-/J	.	x 3	8d/J	.	8f/J	.	8BB-/J	.	.	.	8f\J	.	8dd\J	.	8B-\J	8f\J	8dd\J	.	8ff\J	.
=41	=41	=41	=41	=41	=41	=41	=41	=41	=41	=41	=41	=41	=41	=41	=41	=41	=41	=41	=41	=41
!!mixed beam:problem
!LO:TX:t=P:problem=mixed beam	!	!	!	!	!	!	!	!	!	!	!	!	!	!	!	!	!	!	!	!
8E-\L	.	.	4e-/	.	4g/	.	4E-\	-a	4B-\	-a	4g\	-a	4ee-\	-a	8G/L	8e-\L	8ee-\L	.	8gg\L	.
8EE-/J	.	.	.	.	.	.	.	.	.	.	.	.	.	.	8G/J	8e-\J	8ee-\J	.	8gg\J	.
8r	.	.	8g/	.	8b-/	.	8r	.	8r	.	8r	.	8r	.	8r	8r	8r	.	8r	.
=42	=42	=42	=42	=42	=42	=42	=42	=42	=42	=42	=42	=42	=42	=42	=42	=42	=42	=42	=42	=42
8r	.	.	(<16a-/LL	.	(<16cc/LL	.	8r	.	8r	.	8r	.	8r	.	8r	8r	8r	.	8r	.
.	.	.	16g/)	.	16bn/)	.	.	.	.	.	.	.	.	.	.	.	.	.	.	.
8r	.	.	(<16a-/	.	(<16cc/	.	8r	.	8r	.	8r	.	8r	.	8r	8r	8r	.	8r	.
.	.	.	16g/)	.	16b-X/)	.	.	.	.	.	.	.	.	.	.	.	.	.	.	.
8E-\	.	.	(<16f/	.	(<16a-/	.	8E-\	o-	8B-\	o-	8g\	O-	8ee-\	oſ	8e-\	8g\	8ee-\	.	8gg\	.
.	.	.	16e-/JJ)	.	16g/JJ)	.	.	.	.	.	.	.	.	.	.	.	.	.	.	.
=43	=43	=43	=43	=43	=43	=43	=43	=43	=43	=43	=43	=43	=43	=43	=43	=43	=43	=43	=43	=43
!!mixed beam:problem
!LO:TX:t=P:problem=mixed beam	!	!	!LO:TX:b:t=|:problem	!	!	!	!	!	!	!	!	!	!	!	!	!	!	!	!	!
8B-\L	.	x 4	8e-/L	.	8g/L	.	8B-\	-san-	8B-\	-ſan-	8g\	-san-	8ee-\	san-	8e-\L	8g\L	8ee-\L	.	8gg\L	.
!	!	!	!LO:TX:b:t=|:problem	!	!	!	!	!	!	!	!	!	!	!	!	!	!	!	!	!
8BB-/J	.	x 3	8d/	.	8f/J	.	8BB-/	-na	8B-\	-na	8f\	-na	8dd\	-na	8B-\J	8f\J	8dd\J	.	8ff\J	.
!	!	!	!LO:TX:b:t=|:problem	!	!	!	!	!	!	!	!	!	!	!	!	!	!	!	!	!
8r	.	.	8f/J	.	(<16b-/LL	.	8r	.	8r	.	8r	.	8r	.	8r	8r	8r	.	8r	.
.	.	.	.	.	16cc/JJ)	.	.	.	.	.	.	.	.	.	.	.	.	.	.	.
!LO:LB:g=original	!	!	!	!	!	!	!	!	!	!	!	!	!	!	!	!	!	!	!	!
=44	=44	=44	=44	=44	=44	=44	=44	=44	=44	=44	=44	=44	=44	=44	=44	=44	=44	=44	=44	=44
8r	.	.	(<16g/LL	.	(<16b-/LL	.	8r	.	8r	.	8r	.	8r	.	8r	8r	8r	.	8r	.
.	.	.	16f#X/)	.	16an/)	.	.	.	.	.	.	.	.	.	.	.	.	.	.	.
8r	.	.	(<16g/	.	(<16b-/	.	8r	.	8r	.	8r	.	8r	.	8r	8r	8r	.	8r	.
.	.	.	16fn/)	.	16a-X/)	.	.	.	.	.	.	.	.	.	.	.	.	.	.	.
*	*	*	*	*	*	*	*	*ij	*	*ij	*	*ij	*	*	*	*	*	*	*	*
8BB-/	.	.	(<16d/	.	(<16f/	.	8BB-/	o-	8B-\	o-	8a-\	o-	8ff\	o-	8B-/	8f\	8ff\	.	8aa-\	.
.	.	.	16f/JJ)	.	16a-/JJ)	.	.	.	.	.	.	.	.	.	.	.	.	.	.	.
!	!	!	!	!	!	!	!	!	!	!	!	!	!LO:LB:g=original	!	!LO:LB:g=original	!	!LO:PB:g=original	!	!LO:LB:g=original	!
=45	=45	=45	=45	=45	=45	=45	=45	=45	=45	=45	=45	=45	=45	=45	=45	=45	=45	=45	=45	=45
!!mixed beam:problem
!LO:TX:t=P:problem=mixed beam	!	!	!	!	!	!	!	!	!	!	!	!	!	!	!	!	!	!	!	!
8E-\L	.	x 4	(<16f/LL	.	(<16a-/LL	.	8E-\	-san-	8B-\	-san-	8a-\	-san-	8ff\	-ſan-	8B-/L	8f\L	8ff\L	.	8aa-\L	.
.	.	.	32e-/L	.	32g/L	.	.	.	.	.	.	.	.	.	.	.	.	.	.	.
.	.	.	32f/JJJ)	.	32a-/JJJ)	.	.	.	.	.	.	.	.	.	.	.	.	.	.	.
!	!	!	!LO:TX:b:t=|:problem	!	!	!	!	!	!	!	!	!	!	!	!	!	!	!	!	!
8EE-/J	.	x 3	16e-/LL	.	16g\LL	.	8E-\	-na	8B-\	-na	8g\	-na	8ee-\	-na	8G/J	8e-\J	8ee-\J	.	8gg\J	.
*	*	*	*	*	*	*	*	*	*	*	*	*Xij	*	*	*	*	*	*	*	*
!	!	!	!LO:TX:b:t=|:problem	!	!LO:TX:a:t=|:problem	!	!	!	!	!	!	!	!	!	!	!	!	!	!	!
.	.	.	16g/	.	16b-\	.	.	.	.	.	.	.	.	.	.	.	.	.	.	.
!	!	!	!LO:TX:b:t=|:problem	!	!LO:TX:a:t=|:problem	!	!	!	!	!	!	!	!	!	!	!	!	!	!	!
8r	.	.	16a-/	.	16cc\	.	8r	.	8r	.	8r	.	8r	.	8r	8r	8r	.	8r	.
!	!	!	!LO:TX:b:t=|:problem	!	!LO:TX:a:t=|:problem	!	!	!	!	!	!	!	!	!	!	!	!	!	!	!
.	.	.	16f/JJ	.	16dd\JJ	.	.	.	.	.	.	.	.	.	.	.	.	.	.	.
!	!	!	!	!	!LO:LB:g=original	!	!	!	!	!	!	!	!	!	!	!	!	!	!	!
=46	=46	=46	=46	=46	=46	=46	=46	=46	=46	=46	=46	=46	=46	=46	=46	=46	=46	=46	=46	=46
*	*	*	*	*	*	*	*	*	*	*	*	*ij	*	*ij	*	*	*	*	*	*
8G\L	.	6: x	8e-/L	.	(>8.ee-\L	.	8G\	o-	8B-\	o-	8e-\	o-	8b-\	o-	4.e-\	4.g\	4.b-\	.	4.ee-\	.
8G\	.	.	8e-/	.	.	.	8G\	-san-	8B-\	-san-	8e-\	-san-	8b-\	-ſan-	.	.	.	.	.	.
.	.	.	.	.	16dd\L)	.	.	.	.	.	.	.	.	.	.	.	.	.	.	.
8G\J	.	.	8e-/J	.	16cc\	.	8G\	-na	8B-\	-na	8e-\	-na	8b-\	-na	.	.	.	.	.	.
.	.	.	.	.	16b-\JJ	.	.	.	.	.	.	.	.	.	.	.	.	.	.	.
*	*	*	*	*	*	*	*	*Xij	*	*Xij	*	*Xij	*	*Xij	*	*	*	*	*	*
!	!	!	!	!	!	!	!	!	!	!	!	!	!	!	!	!LO:LB:g=original	!	!	!	!
=47	=47	=47	=47	=47	=47	=47	=47	=47	=47	=47	=47	=47	=47	=47	=47	=47	=47	=47	=47	=47
8A-\L	.	6: 3	8f/L	.	8cc\L	.	8A-\L	in	4A-/	in	4f\	in	8cc\L	in	8f\L	4f\	8cc\L	.	4ff\	.
8B-\	.	.	8f/	.	(>16dd\L	.	8B-\J	.	.	.	.	.	8dd\J	.	8B-\	.	8dd\	.	.	.
.	.	.	.	.	32cc\L	.	.	.	.	.	.	.	.	.	.	.	.	.	.	.
.	.	.	.	.	32dd\JJJ)	.	.	.	.	.	.	.	.	.	.	.	.	.	.	.
!	!	!	!	!	!LO:TX:a:t=|:problem	!	!	!	!	!	!	!	!	!	!	!	!	!	!	!
8c\J	.	x 3	8g/J	.	16ee-\LL	.	8c\	ex-	8G/	ex	8g\	ex	8ee-\	ex-	8e-\J	8g\	8ee-\J	.	8gg\	.
!	!	!	!	!	!LO:TX:a:t=|:problem	!	!	!	!	!	!	!	!	!	!	!	!	!	!	!
.	.	.	.	.	16cc\JJ	.	.	.	.	.	.	.	.	.	.	.	.	.	.	.
=48	=48	=48	=48	=48	=48	=48	=48	=48	=48	=48	=48	=48	=48	=48	=48	=48	=48	=48	=48	=48
!!mixed beam:problem
!LO:TX:t=P:problem=mixed beam	!	!	!	!	!	!	!LO:TX:t=P:problem=mixed beam	!	!	!	!	!	!	!	!	!	!	!	!	!
8A-\L	.	6 x	8f/L	.	16b-/LL	.	8A-\L	-cel-	8c\	cel-	8a-\L	cel-	8ff\L	-cel-	8f\L	8a-\L	8ff\L	.	8aa-\L	.
.	.	.	.	.	16a-/JJ	.	.	.	.	.	.	.	.	.	.	.	.	.	.	.
8B-\	.	x 4	8e-/	.	8g/L	.	8B-\	.	4B-\	.	8g\	.	8ee-\	.	8e-\	8g\	8ee-\	.	8gg\	.
8BB-/J	.	x 3	8d/J	.	8f/J	.	8BB-/J	.	.	.	8f\J	.	8dd\J	.	8B-\J	8f\J	8dd\J	.	8ff\J	.
=49	=49	=49	=49	=49	=49	=49	=49	=49	=49	=49	=49	=49	=49	=49	=49	=49	=49	=49	=49	=49
8E-\L	.	.	8g/L	.	8g/L	.	4E-\	-sis	4B-\	-sis	4g\	-sis	4ee-\	-sis	8G/L	8e-\L	8ee-\L	.	8gg\L	.
8E-\J	.	.	8g/J	.	8g/J	.	.	.	.	.	.	.	.	.	8G/J	8e-\J	8ee-\J	.	8gg\J	.
8r	.	.	8r	.	8r	.	8r	.	8r	.	8r	.	8r	.	8r	8r	8r	.	8r	.
==	==	==	==	==	==	==	==	==	==	==	==	==	==	==	==	==	==	==	==	==
*-	*-	*-	*-	*-	*-	*-	*-	*-	*-	*-	*-	*-	*-	*-	*-	*-	*-	*-	*-	*-
!!!system-decoration: [(g1)][(g2)][(g3)][(g4)]g5
!!!RDF**kern: > = above
!!!RDF**kern: < = below
!!!ENC: Andrzej Gręziak
!!!END: 2021-12-01
!!!EED: Jędrzej Mróz
!!!EEV: 2021-12-15
